lib/svgs/team-terminal.svg

<?xml version="1.0" encoding="UTF-8"?>
<svg width="16px" height="16px" viewBox="0 0 16 16" version="1.1" xmlns="http://www.w3.org/2000/svg" xmlns:xlink="http://www.w3.org/1999/xlink">
    <!-- Generator: sketchtool 51.3 (57544) - http://www.bohemiancoding.com/sketch -->
    <title>team/team-terminal</title>
    <desc>Created with sketchtool.</desc>
    <defs></defs>
    <g id="Icons" stroke="none" stroke-width="1" fill="none" fill-rule="evenodd">
        <g id="Web" transform="translate(-51.000000, -2444.000000)" fill="#000000">
            <g id="team/team-terminal" transform="translate(51.000000, 2444.000000)">
                <path d="M0,4.0340421 L0,14.7031331 C0,15.0712167 0.298734547,15.3699512 0.666818185,15.3699512 L15.3368183,15.3699512 C15.7049019,15.3699512 16.0036364,15.0712167 16.0036364,14.7031331 L16.0036364,4.0340421 L0,4.0340421 M5.80598594,9.84002804 L3.33409093,12.3119231 L2.39121001,11.3690421 L4.39166457,9.36858758 L2.39121001,7.36813302 L3.33409093,6.42525211 L5.80598594,8.89714712 C6.06671185,9.15787303 6.06671185,9.57930213 5.80598594,9.84002804 M11.3359091,12.0358603 L7.33500004,12.0358603 L7.33500004,10.702224 L11.3359091,10.702224 L11.3359091,12.0358603 M2.66727274,2.70040573 L2.66727274,0.699951172 L0.666818185,0.699951172 C0.298734547,0.699951172 0,0.998685719 0,1.36676936 L0,2.70040573 L2.66727274,2.70040573 M16.0036364,2.70040573 L16.0036364,1.36676936 C16.0036364,0.998685719 15.7049019,0.699951172 15.3368183,0.699951172 L4.00090911,0.699951172 L4.00090911,2.70040573 L16.0036364,2.70040573" id="Shape"></path>
            </g>
        </g>
    </g>
</svg>

<svg xmlns="http://www.w3.org/2000/svg" viewBox="0 0 16 16">
    <path d="M0 4.034v10.67c0 .367.299.666.667.666h14.67a.667.667 0 0 0 .667-.667V4.034H0M5.806 9.84l-2.472 2.472-.943-.943 2-2-2-2 .943-.944 2.472 2.472c.26.26.26.682 0 .943m5.53 2.196H7.335v-1.334h4v1.334M2.668 2.7v-2h-2A.667.667 0 0 0 0 1.367V2.7h2.667m13.337 0V1.367A.667.667 0 0 0 15.337.7H4v2h12.003"/>
</svg>
